src/images/std-icons/std-ask_parent_to_pay.svg

<svg xmlns="http://www.w3.org/2000/svg" width="512" height="512" viewBox="0 0 512 512">
  <title>ask parent to pay</title>
  <circle cx="330.667" cy="208" r="58.667" fill="#000" fill-rule="nonzero"/>
  <path fill="#000" fill-rule="nonzero" d="M330.666667 296.106667C291.413333 296.106667 213.333333 315.733333 213.333333 354.56L213.333333 384 448 384 448 354.56C448 315.733333 369.92 296.106667 330.666667 296.106667zM234.666667 245.333333L234.666667 138.666667C234.666667 132.775629 229.891037 128 224 128L74.6666667 128C68.7756293 128 64 132.775629 64 138.666667L64 283.52C64.1171922 286.041991 65.7061014 288.259412 68.0565413 289.181153 70.4069811 290.102894 73.079666 289.556687 74.88 287.786667L106.666667 256 224 256C229.891037 256 234.666667 251.224371 234.666667 245.333333z"/>
</svg>

<svg xmlns="http://www.w3.org/2000/svg" viewBox="0 0 512 512">
  <title>
    ask parent to pay
  </title>
  <circle cx="330.67" cy="208" r="58.67"/>
  <path d="M330.67 296.1c-39.26 0-117.34 19.63-117.34 58.46V384H448v-29.44c0-38.83-78.08-58.45-117.33-58.45zm-96-50.77V138.67c0-5.9-4.78-10.67-10.67-10.67H74.67c-5.9 0-10.67 4.78-10.67 10.67v144.85a6.4 6.4 0 0 0 10.88 4.27L106.67 256H224c5.9 0 10.67-4.78 10.67-10.67z"/>
</svg>
